public/illustrations/_keyboard.svg

<svg width="226" height="332" viewBox="0 0 226 332" fill="none" xmlns="http://www.w3.org/2000/svg">
<path d="M145.654 115.664C149.434 115.282 152.818 114.814 156.245 114.659C163.834 114.206 171.21 116.584 177.1 121.398C189.461 131.663 186.119 147.025 178.771 155.534C176.548 158.111 173.631 160.122 170.502 161.269C167.175 162.373 163.834 162.642 160.393 161.977C147.438 159.782 138.858 152.32 134.922 139.733C134.299 137.949 133.916 136.024 133.223 133.603C131.297 135.33 129.584 136.576 127.885 138.148C117.124 148.144 110.937 160.603 107.185 174.535C104.919 183.668 103.645 193.026 103.504 202.343C103.362 206.619 103.631 206.789 108.034 206.845L202.529 207.355C210.812 207.468 212.157 208.799 212.285 216.94L214.253 318.245C214.323 320.213 214.323 322.054 214.267 324.093C214.182 329.515 212.327 331.356 206.749 331.54C205.602 331.597 204.469 331.639 203.251 331.568L33.9563 331.483C25.2346 331.483 16.5128 331.469 7.79102 331.455C1.74528 331.427 -0.0953495 329.586 0.00376108 323.654C0.456838 287.847 0.867512 252.223 1.40554 216.53C1.50465 215.624 1.40546 214.689 1.50458 213.783C1.90102 208.842 4.39302 206.42 9.46182 206.236C13.7802 206.18 18.1835 206.236 22.5727 206.307L88.8635 206.732C90.1944 206.732 91.6528 206.647 93.3093 206.605C93.3801 205.387 93.4085 204.367 93.4226 203.348C93.7058 186.584 96.2118 170.415 103.362 154.996C109.365 141.985 118.738 130.856 130.716 122.772C132.033 121.936 133.237 120.676 133.86 119.274C137.329 105.682 143.827 93.1942 152.804 82.4903C161.299 72.0837 170.828 62.5267 180.017 52.6864C184.321 48.1132 188.71 43.6674 193.057 39.4057C192.604 38.6836 192.576 38.3721 192.377 38.3296C186.912 35.2572 186.402 33.4024 189.022 27.7248C191.627 22.0472 194.402 16.1006 197.248 10.2814C200.391 3.59857 201.538 3.03221 208.561 5.12768C212.185 -0.521599 214.72 -1.28616 219.675 1.7721C223.739 4.22154 224.234 6.60018 221.983 10.7062C223.427 12.4618 225.367 13.9343 225.679 15.7466C225.99 17.5589 225.141 19.9376 224.319 21.8065C221.629 27.8664 218.727 33.8838 215.838 39.9154C213.106 45.6638 211.322 46.2867 205.573 44.078C204.257 43.5683 203.039 43.0019 201.793 44.4603C192.646 54.1023 183.302 63.7018 174.169 73.3438C167.317 80.5222 160.747 87.8706 155.551 96.3516C152.606 101.236 150.128 106.319 147.58 111.289C146.957 112.691 146.334 114.092 145.781 115.607L145.668 115.678L145.654 115.664ZM128.451 310.047H43.485L43.0178 321.218L127.857 321.303L128.324 310.118L128.437 310.047H128.451ZM138.235 321.275L204.299 321.346L204.016 310.302H138.66C138.532 314.054 138.376 317.509 138.32 321.388L138.249 321.275H138.235ZM10.4954 299.754L56.7659 299.782C56.7659 294.756 56.8791 290.154 56.9499 285.256L10.6087 285.1L10.3821 299.825L10.4954 299.754ZM172.598 130.955C170.941 129.653 169.285 128.364 167.387 127.217C162.503 124.782 157.009 124.06 151.728 125.235C142.497 127.062 142.157 126.269 144.705 136.378C146.857 145.071 152.946 149.928 161.71 151.584C164.244 152.151 166.892 151.825 169.115 150.579C173.419 147.846 177.497 138.403 172.598 130.941V130.955ZM203.138 260.747L161.143 260.846L162.248 275.557L203.563 275.713L203.209 260.86L203.138 260.747ZM161.497 285.765L162.616 299.966L204.058 300.037L203.917 286.048L161.696 285.794L161.497 285.751V285.765ZM11.0476 261.172L10.8918 274.693L46.3593 274.863L45.3115 261.285L45.2407 261.172H11.0476ZM11.5431 228.876L47.9167 228.635L48.1574 216.586L11.6706 216.388C11.6564 220.593 11.5148 224.359 11.4582 228.763L11.5289 228.876H11.5431ZM128.848 216.969L93.3801 216.799L93.3377 228.38L128.579 228.196L128.848 216.969ZM123.977 299.811L152.181 299.896L151.062 285.694L124.204 285.609C124.133 290.523 124.062 294.912 124.062 299.938L123.991 299.825L123.977 299.811ZM58.5357 216.558L58.4082 228.536L83.1576 228.451C83.1293 224.444 83.1576 220.749 83.1151 216.742C74.9031 216.742 67.0167 216.714 58.6065 216.671L58.5357 216.558ZM179.097 238.107C179.267 242.355 179.536 246.206 179.706 250.454L202.926 250.34L202.628 237.966L178.983 238.192L179.097 238.122V238.107ZM175.076 217.195L175.132 227.885L202.558 227.786L202.331 217.365L175.076 217.195ZM103.73 275.245C103.461 270.049 103.206 265.688 102.923 261.002H83.3275L82.7187 275.132L103.73 275.231V275.245ZM138.745 228.111L164.952 227.942L164.811 217.139L138.575 216.983C138.759 220.721 138.716 224.09 138.858 228.027L138.745 228.097V228.111ZM113.74 285.51H94.6544L94.5837 299.98H113.67L113.811 285.624L113.74 285.51ZM10.4529 310.005L10.1838 321.233L32.6961 321.063L33.0359 309.948L10.4529 310.005ZM11.1042 250.935L32.1581 250.85C32.1723 246.645 32.3139 242.879 32.2856 238.872L11.4298 239.014L11.2317 250.864L11.1184 250.935H11.1042ZM72.8642 238.66L72.6236 250.709L93.0545 250.68L93.2244 238.504L72.8784 238.645L72.8642 238.66ZM84.3327 285.355L67.215 285.298C67.215 290.324 67.1017 294.926 67.1442 299.754L84.2619 299.811L84.3327 285.355ZM42.6496 238.844L42.5223 250.822L62.4435 250.779L62.6842 238.73L42.7629 238.773L42.6496 238.844ZM56.4827 274.991L72.4678 275.09L73.0341 261.158L55.4775 261.214L56.5676 275.104L56.4968 274.991H56.4827ZM114.108 275.217L129.272 275.345C129.074 270.276 128.876 265.717 128.706 260.959L113.5 261.03L114.179 275.345L114.108 275.231V275.217ZM143.544 238.32L127.715 238.461L128.564 250.652H143.643L143.417 238.391L143.53 238.32H143.544ZM153.937 250.51L169.143 250.44L168.917 238.178L153.71 238.249L153.937 250.51ZM139.523 275.387L151.742 275.359C151.544 270.29 151.346 265.731 151.218 260.775L138.886 260.874L139.651 275.302L139.537 275.373L139.523 275.387ZM103.291 250.723L118.186 250.68L117.337 238.49L103.475 238.561L103.235 250.609L103.305 250.723H103.291ZM206.041 15.4351L199.06 30.0752L207.456 33.813L214.196 19.3146C211.322 17.9554 208.844 16.6669 206.041 15.4351Z" fill="#102185"/>
</svg>

<svg xmlns="http://www.w3.org/2000/svg" width="226" height="332" fill="none" viewBox="0 0 226 332"><path fill="#102185" d="M145.654 115.664c3.78-.382 7.164-.85 10.591-1.005 7.589-.453 14.965 1.925 20.855 6.739 12.361 10.265 9.019 25.627 1.671 34.136-2.223 2.577-5.14 4.588-8.269 5.735-3.327 1.104-6.668 1.373-10.109.708-12.955-2.195-21.535-9.657-25.471-22.244-.623-1.784-1.006-3.709-1.699-6.13-1.926 1.727-3.639 2.973-5.338 4.545-10.761 9.996-16.948 22.455-20.7 36.387-2.266 9.133-3.54 18.491-3.681 27.808-.142 4.276.127 4.446 4.53 4.502l94.495.51c8.283.113 9.628 1.444 9.756 9.585l1.968 101.305c.07 1.968.07 3.809.014 5.848-.085 5.422-1.94 7.263-7.518 7.447-1.147.057-2.28.099-3.498.028l-169.295-.085c-8.721 0-17.443-.014-26.165-.028-6.046-.028-7.886-1.869-7.787-7.801.453-35.807.864-71.431 1.402-107.124.099-.906 0-1.841.099-2.747.396-4.941 2.888-7.363 7.957-7.547 4.318-.056 8.721 0 13.11.071l66.292.425c1.33 0 2.789-.085 4.445-.127.071-1.218.1-2.238.114-3.257.283-16.764 2.789-32.933 9.939-48.352 6.003-13.011 15.376-24.14 27.354-32.224 1.317-.836 2.521-2.096 3.144-3.498 3.469-13.592 9.967-26.08 18.944-36.784 8.495-10.406 18.024-19.963 27.213-29.804a464 464 0 0 1 13.04-13.28c-.453-.722-.481-1.034-.68-1.076-5.465-3.073-5.975-4.928-3.355-10.605 2.605-5.678 5.38-11.624 8.226-17.444 3.143-6.682 4.29-7.249 11.313-5.153 3.624-5.65 6.159-6.414 11.114-3.356 4.064 2.45 4.559 4.828 2.308 8.934 1.444 1.756 3.384 3.228 3.696 5.04.311 1.813-.538 4.192-1.36 6.06-2.69 6.06-5.592 12.078-8.481 18.11-2.732 5.748-4.516 6.37-10.265 4.162-1.316-.51-2.534-1.076-3.78.382-9.147 9.642-18.491 19.242-27.624 28.884-6.852 7.178-13.422 14.527-18.618 23.008-2.945 4.884-5.423 9.967-7.971 14.937-.623 1.402-1.246 2.803-1.799 4.318l-.113.071zm-17.203 194.383H43.485l-.467 11.171 84.839.085.467-11.185.113-.071zm9.784 11.228 66.064.071-.283-11.044H138.66c-.128 3.752-.284 7.207-.34 11.086l-.071-.113zm-127.74-21.521 46.27.028c0-5.026.114-9.628.185-14.526l-46.341-.156-.227 14.725zm162.103-168.799c-1.657-1.302-3.313-2.591-5.211-3.738-4.884-2.435-10.378-3.157-15.659-1.982-9.231 1.827-9.571 1.034-7.023 11.143 2.152 8.693 8.241 13.55 17.005 15.206 2.534.567 5.182.241 7.405-1.005 4.304-2.733 8.382-12.176 3.483-19.638zm30.54 129.792-41.995.099 1.105 14.711 41.315.156-.354-14.853zm-41.641 25.018 1.119 14.201 41.442.071-.141-13.989-42.221-.254-.199-.043zm-150.45-24.593-.155 13.521 35.467.17-1.047-13.578-.071-.113zm.496-32.296 36.374-.241.24-12.049-36.486-.198c-.015 4.205-.156 7.971-.213 12.375l.07.113zm117.305-11.907-35.468-.17-.042 11.581 35.241-.184zm-4.871 82.842 28.204.085-1.119-14.202-26.858-.085c-.071 4.914-.142 9.303-.142 14.329l-.071-.113zm-65.441-83.253-.128 11.978 24.75-.085c-.029-4.007 0-7.702-.043-11.709-8.212 0-16.098-.028-24.508-.071zm120.561 21.549c.17 4.248.439 8.099.609 12.347l23.22-.114-.298-12.374-23.645.226.114-.07zm-4.021-20.912.056 10.69 27.426-.099-.227-10.421zm-71.346 58.05c-.269-5.196-.524-9.557-.807-14.243H83.328l-.61 14.13 21.012.099zm35.015-47.134 26.207-.169-.141-10.803-26.236-.156c.184 3.738.141 7.107.283 11.044l-.113.07zM113.74 285.51H94.654l-.07 14.47h19.086l.141-14.356zM10.453 310.005l-.27 11.228 22.513-.17.34-11.115zm.651-59.07 21.054-.085c.014-4.205.156-7.971.128-11.978l-20.856.142-.198 11.85-.114.071zm61.76-12.275-.24 12.049 20.43-.029.17-12.176-20.346.141zm11.469 46.695-17.118-.057c0 5.026-.113 9.628-.07 14.456l17.117.057zM42.65 238.844l-.128 11.978 19.922-.043.24-12.049-19.921.043zm13.833 36.147 15.985.099.566-13.932-17.557.056 1.09 13.89-.07-.113zm57.625.226 15.164.128c-.198-5.069-.396-9.628-.566-14.386l-15.206.071.679 14.315-.071-.114zm29.436-36.897-15.829.141.849 12.191h15.079l-.226-12.261.113-.071zm10.393 12.19 15.206-.07-.226-12.262-15.207.071zm-14.414 24.877 12.219-.028c-.198-5.069-.396-9.628-.524-14.584l-12.332.099.765 14.428-.114.071zm-36.232-24.664 14.895-.043-.849-12.19-13.862.071-.24 12.048.07.114zm102.75-235.288-6.981 14.64 8.396 3.738 6.74-14.498c-2.874-1.36-5.352-2.648-8.155-3.88"/></svg>
